hair-dryer-outline.svg

<svg fill="currentColor" viewBox="0 0 24 24"><path d="M10 12.73A70 70 0 0 0 17 11V4s-6.5-2-9.5-2a5.5 5.5 0 0 0-1.38 10.82L7 19h1a3 3 0 0 0 1.46 2.33A3.15 3.15 0 0 1 11 24h1a4.12 4.12 0 0 0-1.91-3.45C9.39 20 9 19.63 9 19h1M4 7.5A3.5 3.5 0 0 1 7.5 4 37 37 0 0 1 15 5.5v4A37 37 0 0 1 7.5 11 3.5 3.5 0 0 1 4 7.5M22 9a4.3 4.3 0 0 1-2.22-.55A3.4 3.4 0 0 0 18 8V7a4.3 4.3 0 0 1 2.22.55A3.4 3.4 0 0 0 22 8m0-2a3.4 3.4 0 0 1-1.78-.45A4.3 4.3 0 0 0 18 5v1a3.4 3.4 0 0 1 1.78.45A4.3 4.3 0 0 0 22 7m0 3a3.4 3.4 0 0 1-1.78-.45A4.3 4.3 0 0 0 18 9v1a3.4 3.4 0 0 1 1.78.45A4.3 4.3 0 0 0 22 11M9 7.5A1.5 1.5 0 1 1 7.5 6 1.5 1.5 0 0 1 9 7.5"/></svg>

<svg  viewBox="0 0 24 24" fill="currentColor"><path  d="M10 12.73A70.39 70.39 0 0 0 17 11V4S10.5 2 7.5 2A5.5 5.5 0 0 0 6.12 12.82L7 19H8A3 3 0 0 0 9.46 21.33A3.15 3.15 0 0 1 11 24H12A4.12 4.12 0 0 0 10.09 20.55C9.39 20 9 19.63 9 19H10M4 7.5A3.5 3.5 0 0 1 7.5 4A37.08 37.08 0 0 1 15 5.5V9.5A37.08 37.08 0 0 1 7.5 11A3.5 3.5 0 0 1 4 7.5M22 9A4.32 4.32 0 0 1 19.78 8.45A3.4 3.4 0 0 0 18 8V7A4.32 4.32 0 0 1 20.22 7.55A3.4 3.4 0 0 0 22 8M22 6A3.4 3.4 0 0 1 20.22 5.55A4.32 4.32 0 0 0 18 5V6A3.4 3.4 0 0 1 19.78 6.45A4.32 4.32 0 0 0 22 7M22 10A3.4 3.4 0 0 1 20.22 9.55A4.32 4.32 0 0 0 18 9V10A3.4 3.4 0 0 1 19.78 10.45A4.32 4.32 0 0 0 22 11M9 7.5A1.5 1.5 0 1 1 7.5 6A1.5 1.5 0 0 1 9 7.5Z"/></svg>
